production/public/images/logo_white_name.svg

<?xml version="1.0" standalone="no"?>
<!DOCTYPE svg PUBLIC "-//W3C//DTD SVG 1.1//EN" "http://www.w3.org/Graphics/SVG/1.1/DTD/svg11.dtd">
<svg width="810px" height="180px" version="1.1" xmlns="http://www.w3.org/2000/svg" xmlns:xlink="http://www.w3.org/1999/xlink" xml:space="preserve" style="fill-rule:evenodd;clip-rule:evenodd;stroke-linejoin:round;stroke-miterlimit:1.41421;">
    <g>
        <g id="Layer 1">
            <path d="M147.921,129.54C147.921,130.04 147.745,130.518 147.439,130.896C147.418,130.772 147.392,130.65 147.364,130.528L147.35,130.46C147.334,130.387 147.317,130.315 147.297,130.236C147.291,130.211 147.285,130.186 147.276,130.158C147.257,130.093 147.233,130.031 147.209,129.968L147.157,129.829C147.127,129.742 147.096,129.656 147.061,129.574C147.022,129.48 146.976,129.39 146.929,129.3L146.864,129.175C146.828,129.101 146.792,129.028 146.751,128.958C146.681,128.841 146.603,128.73 146.525,128.619L146.466,128.533C146.435,128.484 146.401,128.436 146.368,128.392C146.244,128.232 146.103,128.072 145.945,127.91L145.916,127.878C145.567,127.529 145.179,127.23 144.763,126.989L122.34,114.039L122.34,65.8873L144.718,52.9643C144.847,52.8903 144.994,52.8293 145.179,52.7743L145.21,52.7643C145.233,52.7573 145.254,52.7503 145.28,52.7443C145.421,52.7093 145.569,52.6903 145.719,52.6863C145.743,52.6863 145.768,52.6843 145.804,52.6813C145.886,52.6823 145.982,52.6963 146.066,52.7083L146.102,52.7133C146.136,52.7183 146.168,52.7223 146.2,52.7283C146.286,52.7473 146.376,52.7743 146.477,52.8103C146.52,52.8253 146.562,52.8423 146.603,52.8603C146.696,52.8993 146.803,52.9473 146.918,53.0173C146.999,53.0683 147.084,53.1373 147.153,53.1943C147.173,53.2133 147.195,53.2303 147.215,53.2473C147.232,53.2603 147.248,53.2723 147.273,53.2973C147.363,53.3833 147.438,53.4653 147.502,53.5503C147.52,53.5733 147.536,53.6023 147.553,53.6313C147.57,53.6613 147.588,53.6913 147.605,53.7173L147.639,53.7743C147.668,53.8163 147.696,53.8583 147.719,53.9063C147.736,53.9423 147.748,53.9833 147.761,54.0233L147.82,54.1923C147.835,54.2353 147.852,54.2773 147.864,54.3233C147.901,54.4923 147.921,54.6523 147.921,54.8143L147.921,129.54ZM144.141,131.894L144.121,132.065C144.115,132.125 144.112,132.184 144.1,132.236C144.075,132.339 144.034,132.444 143.978,132.574L143.947,132.655C143.938,132.678 143.93,132.701 143.922,132.718C143.882,132.791 143.822,132.872 143.76,132.958L143.739,132.985C143.719,133.013 143.701,133.041 143.681,133.07L143.663,133.098C143.65,133.113 143.638,133.129 143.636,133.136C143.518,133.269 143.389,133.383 143.255,133.475L143.102,133.579L104.169,156.072C104.141,155.852 104.097,155.635 104.043,155.421C103.674,154.003 102.766,152.809 101.481,152.059L80.7025,140.061L120.686,116.97L143.055,129.871L143.103,129.901C143.255,129.989 143.391,130.091 143.519,130.212L143.549,130.244C143.672,130.366 143.776,130.501 143.864,130.648L143.894,130.711C143.977,130.859 144.038,131.011 144.081,131.158C144.087,131.183 144.089,131.209 144.091,131.236C144.096,131.276 144.102,131.315 144.113,131.374C144.135,131.492 144.155,131.604 144.156,131.7C144.157,131.754 144.15,131.819 144.141,131.894M100.583,157.826C100.472,157.997 100.373,158.139 100.23,158.293C100.206,158.321 100.177,158.346 100.147,158.372L78.4255,170.914C78.2175,171.028 78.0445,171.098 77.8525,171.146C77.4915,171.247 77.1595,171.248 76.7475,171.134C76.7115,171.125 76.6755,171.111 76.6385,171.098L76.5725,171.074C76.5385,171.062 76.5075,171.048 76.4945,171.043C76.4055,170.999 76.3155,170.953 76.2545,170.92L11.4635,133.503C11.3655,133.438 11.2895,133.379 11.2095,133.307C11.1725,133.277 11.1355,133.246 11.1175,133.229C10.7325,132.831 10.5195,132.305 10.5195,131.749C10.5195,130.974 10.9195,130.28 11.5905,129.893L33.9805,116.945L99.7445,154.941C100.966,155.654 101.008,157.088 100.583,157.826M7.1755,130.872C6.8805,130.497 6.7115,130.029 6.7115,129.54L6.7115,54.8143C6.7115,54.2133 6.9375,53.6943 7.3945,53.2623C7.5065,53.1503 7.6475,53.0493 7.8355,52.9463C7.8715,52.9273 7.9085,52.9083 7.9535,52.8873C8.0385,52.8463 8.1365,52.8093 8.2535,52.7743L8.3145,52.7553C8.3485,52.7443 8.3825,52.7333 8.4135,52.7263C8.5385,52.6993 8.6665,52.6833 8.7965,52.6793C8.8215,52.6783 8.8465,52.6763 8.8735,52.6733C9.0235,52.6743 9.1795,52.6963 9.3495,52.7393C9.3625,52.7433 9.3765,52.7483 9.3895,52.7533L9.4585,52.7753C9.6445,52.8333 9.7815,52.8893 9.8975,52.9563L32.2915,65.8873L32.2915,114.038L9.6455,127.094C8.3035,127.949 7.4135,129.326 7.1755,130.872M7.7535,48.5503L33.9635,33.4263L73.9615,56.5213L73.9505,56.5273L99.7465,71.4223C100.349,71.7743 100.736,72.3723 100.809,73.0623C100.811,73.0823 100.814,73.1013 100.817,73.1243C100.827,73.2413 100.822,73.3723 100.805,73.5343L100.799,73.5733C100.796,73.6053 100.792,73.6373 100.787,73.6733C100.767,73.7853 100.736,73.8993 100.692,74.0193C100.672,74.0733 100.65,74.1263 100.625,74.1793C100.577,74.2873 100.525,74.3803 100.472,74.4613C100.433,74.5193 100.387,74.5743 100.34,74.6303C100.273,74.7123 100.207,74.7903 100.137,74.8533C100.023,74.9563 99.8985,75.0623 99.7655,75.1393L78.3895,87.4123C77.7535,87.7773 76.8835,87.7773 76.2495,87.4093L34.0535,63.0433L11.6535,50.1043C11.4605,49.9813 11.2685,49.8893 10.9505,49.7473C10.9085,49.7293 10.8645,49.7163 10.8125,49.7033C10.5475,49.6013 10.2635,49.5193 9.9455,49.4523L9.8845,49.4403C9.8245,49.4263 9.7635,49.4143 9.7035,49.4043C9.3235,49.3433 9.0105,49.3053 8.7085,49.3383L8.6775,49.3413C8.6345,49.3423 8.5925,49.3453 8.5495,49.3493L8.5015,49.3533C8.1505,49.3753 7.8105,49.4283 7.4835,49.5113C7.4615,49.5163 7.4385,49.5213 7.4115,49.5283C7.2015,49.5863 6.9915,49.6573 6.7885,49.7403C6.9505,49.2453 7.2905,48.8173 7.7535,48.5503M76.2305,9.0353C76.8825,8.6593 77.7235,8.6593 78.3735,9.0343L117.323,31.4933L77.3145,54.5973L37.3085,31.4963L76.2305,9.0353ZM80.6655,89.9613L101.43,78.0393C101.662,77.9063 101.888,77.7503 102.138,77.5493L118.996,67.8143L118.996,112.108L80.6655,89.9613ZM35.6355,112.126L35.6355,67.8183L73.9745,89.9573L35.6355,112.126ZM76.2425,92.5073C76.8945,92.1303 77.7375,92.1303 78.3885,92.5063L117.364,115.027L77.3455,138.139L37.3215,115.013L76.2425,92.5073ZM146.871,48.5443C147.343,48.8183 147.688,49.2553 147.847,49.7563C147.774,49.7283 147.697,49.7003 147.62,49.6733C146.629,49.3033 145.577,49.2453 144.566,49.4893C144.267,49.5553 143.977,49.6443 143.715,49.7493C143.669,49.7613 143.625,49.7743 143.567,49.7983C143.375,49.8853 143.173,49.9793 143.037,50.0693L127.212,59.2113L104.136,72.5343C103.913,70.8573 102.942,69.3943 101.442,68.5283L80.6585,56.5273L120.657,33.4293L146.871,48.5443ZM148.575,45.6543L80.0435,6.1383C79.2245,5.6663 78.2765,5.4163 77.3015,5.4163C76.3265,5.4163 75.3785,5.6663 74.5605,6.1383L6.0735,45.6473C4.3805,46.6283 3.3295,48.4543 3.3295,50.4153L3.3375,51.7383L3.3115,129.523C3.3105,131.478 4.3625,133.3 6.0555,134.277L74.5915,173.848C75.4245,174.329 76.3735,174.583 77.3355,174.583C78.2965,174.583 79.2455,174.329 80.0785,173.848L148.577,134.3C150.269,133.322 151.321,131.501 151.321,129.547L151.321,50.4073C151.321,48.4513 150.269,46.6303 148.575,45.6543" style="fill:white;fill-rule:nonzero;"/>
            <path d="M227.509,98.9645L206.075,53.3155L194.947,53.3155L194.947,126.685L206.075,126.685L206.075,77.6335L223.387,113.392L231.631,113.392L248.531,77.6335L248.531,126.685L259.659,126.685L259.659,53.3155L248.531,53.3155L227.509,98.9645Z" style="fill:white;fill-rule:nonzero;"/>
            <rect x="281.302" y="53.315" width="11.128" height="73.369" style="fill:white;fill-rule:nonzero;"/>
            <path d="M358.276,104.839L324.374,53.316L314.173,53.316L314.173,126.684L325.301,126.684L325.301,75.058L359.203,126.684L369.405,126.684L369.405,53.316L358.276,53.316L358.276,104.839Z" style="fill:white;fill-rule:nonzero;"/>
            <path d="M384.659,63.311L404.855,63.311L404.855,126.684L415.985,126.684L415.985,63.311L436.181,63.311L436.181,53.316L384.659,53.316L384.659,63.311Z" style="fill:white;fill-rule:nonzero;"/>
            <path d="M504.962,116.07C500.737,120.501 495.07,121.738 489.196,121.738L471.473,121.738L471.473,58.2614L489.196,58.2614C495.07,58.2614 500.737,59.4974 504.962,63.9294C510.424,69.7004 510.424,80.3134 510.424,90.0004C510.424,99.6864 510.424,110.299 504.962,116.07M490.536,53.3154L465.908,53.3154L465.908,126.684L490.536,126.684C498.264,126.684 504.447,124.417 508.878,119.986C515.885,112.978 515.989,100.923 515.989,90.0004C515.989,79.0764 515.885,67.0214 508.878,60.0134C504.447,55.5834 498.264,53.3154 490.536,53.3154" style="fill:white;fill-rule:nonzero;"/>
            <path d="M535.775,126.684L580.292,126.684L580.292,121.738L541.34,121.738L541.34,92.1642L574.521,92.1642L574.521,87.2172L541.34,87.2172L541.34,58.2622L580.292,58.2622L580.292,53.3152L535.775,53.3152L535.775,126.684Z" style="fill:white;fill-rule:nonzero;"/>
            <path d="M634.186,92.8852C630.786,90.0002 627.901,88.8662 621.1,87.8362L612.547,86.4962C608.425,85.8772 604.613,84.4362 602.036,82.2712C599.46,80.1082 598.327,76.8102 598.327,72.5852C598.327,63.2082 604.613,57.4372 615.329,57.4372C623.985,57.4372 628.828,60.1162 633.156,64.2382L636.762,60.6322C630.477,55.1702 624.706,52.6972 615.638,52.6972C601.521,52.6972 592.865,60.5292 592.865,72.7912C592.865,78.6652 594.823,83.1982 598.635,86.3932C601.83,89.1752 606.158,90.8242 611.722,91.6492L620.275,92.9882C626.149,93.9152 628.313,94.6372 630.889,96.9042C633.671,99.2742 634.907,102.777 634.907,107.208C634.907,116.792 627.695,122.356 616.05,122.356C607.292,122.356 601.83,120.295 595.235,113.7L591.319,117.616C598.018,124.314 604.922,127.303 615.741,127.303C631.095,127.303 640.472,119.368 640.472,107.002C640.472,101.026 638.102,96.2852 634.186,92.8852" style="fill:white;fill-rule:nonzero;"/>
            <rect x="657.889" y="53.315" width="5.564" height="73.369" style="fill:white;fill-rule:nonzero;"/>
            <path d="M708.38,94.1213L728.062,94.1213L728.062,100.716C728.062,107.002 726.825,111.227 723.63,115.246C719.818,119.883 714.152,122.356 708.38,122.356C703.022,122.356 698.282,120.501 694.47,116.689C689.215,111.434 688.802,105.456 688.802,90.0003C688.802,74.5433 689.215,68.5673 694.47,63.3113C698.282,59.4983 703.022,57.6433 708.38,57.6433C718.272,57.6433 725.693,63.9293 727.856,74.1303L733.42,74.1303C731.256,61.2503 721.158,52.6973 708.38,52.6973C701.065,52.6973 694.881,55.3773 690.554,59.7043C683.753,66.5053 683.237,72.1733 683.237,90.0003C683.237,107.826 683.753,113.494 690.554,120.295C694.881,124.624 701.065,127.302 708.38,127.302C715.8,127.302 722.91,124.108 727.65,118.852C731.977,114.01 733.626,108.857 733.626,101.129L733.626,89.1753L708.38,89.1753L708.38,94.1213Z" style="fill:white;fill-rule:nonzero;"/>
            <path d="M801.123,53.3157L801.123,116.895L758.773,53.3157L753.207,53.3157L753.207,126.685L758.773,126.685L758.773,62.8997L801.123,126.685L806.689,126.685L806.689,53.3157L801.123,53.3157Z" style="fill:white;fill-rule:nonzero;"/>
        </g>
    </g>
</svg>

<svg width="810" height="180" xmlns="http://www.w3.org/2000/svg" fill-rule="evenodd" clip-rule="evenodd" stroke-linejoin="round" stroke-miterlimit="1.414"><g fill="#fff"><path d="M147.92 129.54c0 .5-.175.978-.48 1.356-.022-.124-.048-.246-.076-.368l-.014-.068c-.016-.073-.033-.145-.053-.224l-.02-.078c-.02-.065-.044-.127-.068-.19l-.053-.14c-.03-.086-.06-.172-.096-.254-.038-.094-.084-.184-.13-.274l-.066-.125c-.036-.074-.072-.147-.113-.217-.07-.117-.147-.228-.225-.34l-.06-.085c-.03-.05-.064-.097-.097-.14-.124-.16-.265-.32-.423-.483l-.03-.032c-.348-.35-.736-.648-1.152-.89l-22.423-12.95V65.89l22.378-12.924c.13-.074.276-.135.46-.19l.032-.01c.023-.007.044-.014.07-.02.14-.035.29-.054.44-.058.023 0 .048-.002.084-.005.082.002.178.016.262.028l.036.005.098.015c.086.02.176.046.277.082.043.015.085.032.126.05.093.04.2.087.315.157.08.05.166.12.235.177.02.02.042.036.062.053.017.013.033.025.058.05.09.086.165.168.23.253.017.023.033.052.05.08l.052.087.034.057c.028.042.056.084.08.132.016.036.028.077.04.117l.06.17c.015.042.032.084.044.13.037.17.057.33.057.49v74.727zm-3.78 2.354l-.02.17c-.005.06-.008.12-.02.172-.025.103-.066.208-.122.338l-.03.08c-.01.024-.018.047-.026.064-.04.073-.1.154-.162.24l-.02.027-.06.085-.017.028c-.013.015-.025.03-.027.038-.118.133-.247.247-.38.34l-.154.103-38.933 22.492c-.03-.22-.073-.437-.127-.65-.37-1.42-1.277-2.613-2.562-3.363l-20.778-12 39.984-23.09 22.37 12.9.047.03c.152.09.288.19.416.312l.03.032c.122.122.226.257.314.404l.03.063c.083.15.144.3.187.448.007.025.01.05.01.078.006.04.012.08.023.138.022.118.042.23.043.326 0 .054-.006.12-.015.194m-43.557 25.932c-.11.17-.21.313-.353.467-.024.028-.053.053-.083.08l-21.722 12.54c-.207.115-.38.185-.572.233-.36.1-.694.102-1.105-.012-.037-.01-.073-.023-.11-.036l-.066-.024c-.034-.012-.065-.026-.078-.03-.088-.045-.178-.09-.24-.124l-64.79-37.417c-.098-.065-.175-.124-.255-.196-.038-.03-.075-.06-.093-.078-.385-.4-.598-.925-.598-1.48 0-.776.4-1.47 1.07-1.857l22.39-12.948 65.765 37.996c1.22.714 1.263 2.148.838 2.886M7.176 130.872c-.296-.375-.465-.843-.465-1.332l.002-74.726c0-.6.226-1.12.683-1.552.112-.112.253-.213.44-.316.037-.02.074-.038.12-.06.084-.04.18-.077.3-.112l.06-.02.1-.028c.124-.027.252-.043.382-.047l.076-.007c.15 0 .307.023.477.066.013.003.027.008.04.013l.07.022c.184.058.32.114.438.18L32.29 65.888l.002 48.15-22.647 13.057c-1.34.855-2.23 2.232-2.47 3.778m.58-82.322l26.21-15.124L73.96 56.52l-.01.007 25.796 14.895c.603.352.99.95 1.063 1.64 0 .02.004.04.007.062.01.117.005.248-.012.41l-.006.04-.013.1c-.02.11-.05.225-.095.345-.02.053-.042.106-.067.16-.048.107-.1.2-.153.28-.04.06-.085.114-.132.17-.067.082-.133.16-.203.223-.114.103-.24.21-.37.286L78.39 87.41c-.636.365-1.507.365-2.14-.003L34.052 63.042l-22.4-12.94c-.193-.122-.385-.214-.703-.356-.04-.018-.085-.03-.137-.044-.266-.102-.55-.184-.868-.25l-.06-.013c-.06-.014-.12-.026-.18-.036-.382-.06-.694-.1-.996-.066l-.033.003c-.043.002-.085.005-.127.01l-.05.003c-.35.022-.69.075-1.016.158-.022.006-.045.01-.072.018-.21.058-.42.13-.623.212.16-.495.5-.923.963-1.19M76.23 9.035c.652-.376 1.493-.376 2.144 0l38.95 22.458-40.01 23.104-40.005-23.1 38.92-22.462zm4.435 80.926l20.765-11.92c.232-.134.458-.29.708-.49l16.858-9.736v44.294L80.666 89.96zm-45.03 22.166V67.818l38.34 22.14-38.34 22.168zm40.608-19.62c.65-.376 1.495-.376 2.145 0l38.976 22.52-40.019 23.113-40.023-23.127 38.92-22.506zm70.628-43.962c.473.274.818.71.977 1.212-.073-.028-.15-.056-.227-.083-.99-.37-2.043-.428-3.054-.184-.3.065-.59.154-.85.26-.047.01-.09.024-.15.048-.19.087-.393.18-.53.27l-15.824 9.143-23.076 13.324c-.223-1.677-1.194-3.14-2.694-4.006l-20.783-12 39.997-23.1 26.214 15.116zm1.705-2.89L80.045 6.138c-.82-.472-1.77-.722-2.743-.722-.976 0-1.924.25-2.742.722L6.074 45.648c-1.693.98-2.744 2.806-2.744 4.767l.007 1.323-.026 77.785c0 1.955 1.052 3.777 2.746 4.754l68.535 39.57c.834.482 1.784.736 2.745.736.962 0 1.91-.254 2.744-.735l68.497-39.548c1.692-.978 2.744-2.8 2.744-4.753v-79.14c0-1.956-1.05-3.777-2.745-4.753"/><path d="M227.51 98.965l-21.435-45.65h-11.128v73.37h11.128V77.633l17.312 35.76h8.244l16.9-35.76v49.052h11.13v-73.37h-11.13l-21.02 45.65zM281.302 53.315h11.128v73.37h-11.128zM358.276 104.84l-33.902-51.524h-10.2v73.368H325.3V75.058l33.903 51.626h10.202V53.316h-11.13v51.523zM384.66 63.31h20.195v63.374h11.13V63.31h20.196v-9.994h-51.52v9.995zM504.962 116.07c-4.225 4.43-9.892 5.668-15.766 5.668h-17.723V58.26h17.723c5.874 0 11.54 1.237 15.766 5.67 5.462 5.77 5.462 16.383 5.462 26.07 0 9.686 0 20.3-5.462 26.07m-14.426-62.755h-24.628v73.37h24.628c7.728 0 13.91-2.268 18.342-6.7 7.007-7.007 7.11-19.062 7.11-29.985 0-10.924-.103-22.98-7.11-29.987-4.43-4.43-10.614-6.698-18.342-6.698"/><path d="M535.775 126.684h44.517v-4.946H541.34V92.164h33.18v-4.947h-33.18V58.262h38.952v-4.947h-44.517v73.37zM634.186 92.885c-3.4-2.885-6.285-4.02-13.086-5.05l-8.553-1.34c-4.122-.618-7.934-2.06-10.51-4.224-2.577-2.162-3.71-5.46-3.71-9.685 0-9.377 6.286-15.148 17.002-15.148 8.655 0 13.498 2.68 17.826 6.8l3.606-3.605c-6.285-5.462-12.056-7.935-21.124-7.935-14.117 0-22.773 7.832-22.773 20.094 0 5.875 1.958 10.408 5.77 13.603 3.195 2.782 7.523 4.43 13.087 5.256l8.553 1.338c5.874.927 8.038 1.65 10.614 3.916 2.78 2.37 4.017 5.873 4.017 10.304 0 9.584-7.212 15.148-18.857 15.148-8.758 0-14.22-2.06-20.815-8.656l-3.916 3.916c6.698 6.698 13.602 9.687 24.42 9.687 15.355 0 24.732-7.935 24.732-20.3 0-5.977-2.37-10.718-6.286-14.118"/><path d="M657.89 53.315h5.563v73.37h-5.564zM708.38 94.12h19.682v6.596c0 6.286-1.237 10.51-4.432 14.53-3.812 4.637-9.478 7.11-15.25 7.11-5.358 0-10.098-1.855-13.91-5.667-5.255-5.256-5.668-11.234-5.668-26.69 0-15.457.413-21.433 5.668-26.69 3.812-3.812 8.552-5.667 13.91-5.667 9.892 0 17.313 6.286 19.476 16.487h5.564c-2.164-12.88-12.262-21.433-25.04-21.433-7.315 0-13.5 2.68-17.826 7.007-6.8 6.8-7.317 12.47-7.317 30.296s.516 23.494 7.317 30.295c4.327 4.33 10.51 7.007 17.826 7.007 7.42 0 14.53-3.194 19.27-8.45 4.327-4.842 5.976-9.995 5.976-17.723V89.174H708.38v4.946zM801.123 53.316v63.58l-42.35-63.58h-5.566v73.37h5.566V62.9l42.35 63.785h5.566v-73.37h-5.567z"/></g></svg>
